X:1
T:Skjön Jomfru! Luk det vindue up
T:Aug. Söderman (1832-1876)
T:Skjön Jomfru! Luk dit vindue up
T:Nr 1 av tre visor i folkton
T:©PA Aglert Edition may be freely distributed, duplicated, performed and recorded
T:©PA Aglert Edition may be freely distributed, duplicated, performed and recorded
C:Aug. Söderman (1832-1876)
Z:©PA Aglert
Z:Edition may be freely distributed, duplicated, performed and recorded
%%score [ ( 1 2 ) ( 3 4 ) ]
L:1/8
Q:1/8=132
M:6/8
K:Emin
V:1 treble nm="S"
V:2 treble 
V:3 bass nm="B"
V:4 bass 
V:1
"^Andante"!p! B, | E2 E (G>F)G |!<(! A2 A!<)! c2 B | (A>G)F!>(! (G>F)!>)!E | ^D2 E F z!p! B, | %5
w: 1.Skjön|Jom- fru! luk * dit|vin- due op, her|er, * her er * din|hjer- tens- kjær. Bleg|
w: 2.Skjön|jom- fru! ræk mig din|li- lie- hand, jeg|er, * jeg er * saa|syg og mat. Ak!|
w: 3.Skjön|jom- fru! ræk mig din|pur- pur- mund, jeg|var, * jeg var * saa|svim- mel nys; jeg|
 (E>E)E (G>F)G |"^poco cresc." A2 A c2 E | (F>E)F (A>G)A |!ff! B2"^rall.""^rall." B d2 c | %9
w: maa- * nen stan- der paa|him- lens blaa, mildt|nat- * ter- ga- le- ne|tril- ler slaa; skjön|
w: fra * den tid, * jeg|sku- ed dig, bort-|svin- der all ro * og|sövn fra mig, skjön|
w: blus- ser, og höjt * mit|hjer- te slaar, du,|som * har saa- ret, o,|læg mit saar, skjön|
"^a tempo""^a tempo" !>!B3 B z A |!>(! !>!G3!>)! G2 z |!mf! (A>G)A B2 F |!>(! G3- G!>)! z!p! F | %13
w: jom- fru! skjön|jom- fru!|luk * dit vin- due|op! * Din|
w: jom- fru! skjön|jom- fru!|ræk mig din li- lie-|hand, * og|
w: jom- fru! skjön|jom- fru!|ræk mig din pur- pur-|mund, * Giv|
 E3 E3"^dim." | (^D3- D"^rall.""^rall."^C)D | E6- | E2 z z2 z |] %17
w: hjer- tens-|kjær * * er|her.||
w: lad mig|faa * * den|fat.||
w: mig et|ro- * * sen-|kys!||
V:2
 B, | B,2 B, E>EE | E2 E G2 ^G | E2 ^D E>D^C | B,2 ^C ^D z B, | B,>B,B, E>EE | E2 E G2 E | %7
 D>^CD E>EF | G2 G G2 F | G3 G z F | E3 E2 z | E>EE E2 ^D | E3- E z C | B,3 B,3 | (B,3- B,A,)B, | %15
 B,6- | B,2 z z2 z |] %17
V:3
!p! B, | G,2 G, B,>A,B, |!<(! C2 C!<)! E2 D | C2 B,!>(! B,2!>)! ^A, | B,2 B, B, z!p! B, | %5
 G,>G,G, B,>A,B, |"^poco cresc." C2 C E2 C | A,>A,A, !courtesy!=C>CC |!ff! B,2 D D2 D | D3 D z C | %10
!>(! B,3!>)! B,2 z |!mf! F,>E,F, (G,>A,)B, |!>(! B,3-!>)! B, z!p! A, | G,3 G,3 | %14
"^dim." (F,3- F,B,)A, | G,6- | G,2 z z2 z |] %17
V:4
 B, | E,2 E, (E,>E,)E, | E,2 E, E,2 E, | A,2 B, E,2 F, | B,2 B,, B,, z B, | (E,>E,)E, (E,>E,)E, | %6
 A,2 A, A,2 A, | (D,>D,)D, (D,>D,)E, | G,2 G, B,2 A, | G,3 G, z D, | E,3 E,2 z | %11
 (C,>C,)C, B,,2 B,, | E,3- E, z A,, | B,,3 B,,3 | B,,3- B,,2 B,, | E,6- | E,2 z z2 z |] %17

